X: 1
T: Far From Home
R: Reel
M: 4/4
L: 1/8
K: G
|:GEDE G3A|B2BA Bcd2|GEDE G3B|AGAB AGEF|
GEDE G3A|B2BA Bcd2|edef gedc|BGAF G4:|
|:g3e f3d|edef edB2|gedB G3B|AGAB AGEF|
GEDE G3A|B2BA Bcd2|edef gedc|BGAF G4:|
